laser-cuts/boites/h190_ep5_v2/arriere_int_h190_ep5_v2.svg

<?xml version="1.0" encoding="UTF-8" standalone="no"?>
<!-- Generator: Fusion 360, Shaper Origin Export Add-In, Version 1.7.0  -->

<svg
   shaper:fusionaddin="version:1.7.0"
   width="42cm"
   height="9.75cm"
   version="1.1"
   x="0cm"
   y="0cm"
   viewBox="0 0 42 9.75"
   enable-background="new 0 0 42 9.75"
   xml:space="preserve"
   id="svg12"
   sodipodi:docname="arriere_int_h190_ep5_v2.svg"
   inkscape:version="1.1.2 (0a00cf5339, 2022-02-04)"
   xmlns:inkscape="http://www.inkscape.org/namespaces/inkscape"
   xmlns:sodipodi="http://sodipodi.sourceforge.net/DTD/sodipodi-0.dtd"
   xmlns="http://www.w3.org/2000/svg"
   xmlns:svg="http://www.w3.org/2000/svg"
   xmlns:shaper="http://www.shapertools.com/namespaces/shaper"><defs
     id="defs16" /><sodipodi:namedview
     id="namedview14"
     pagecolor="#ffffff"
     bordercolor="#666666"
     borderopacity="1.0"
     inkscape:pageshadow="2"
     inkscape:pageopacity="0.0"
     inkscape:pagecheckerboard="0"
     inkscape:document-units="cm"
     showgrid="false"
     inkscape:zoom="0.42396329"
     inkscape:cx="1069.6681"
     inkscape:cy="187.51623"
     inkscape:window-width="1870"
     inkscape:window-height="1016"
     inkscape:window-x="0"
     inkscape:window-y="0"
     inkscape:window-maximized="1"
     inkscape:current-layer="svg12" /><path
     id="path10"
     transform="matrix(1,0,0,-1,21,4.875)"
     d="M 12,-4.375 H 9 v 0.5 h 3 z m 6,0 h -3 v 0.5 h 3 z m -27,0 h -3 v 0.5 h 3 z m -6,0 h -3 v 0.5 h 3 z m -5,9.25 V 1.7916667 h -1 V -4.875 H 21 V 1.7916667 H 20 V 4.875 Z"
     style="fill:none;stroke:#ff0000;stroke-opacity:1;stroke-width:0.1;stroke-miterlimit:4;stroke-dasharray:none" /></svg>

<?xml version="1.0" encoding="utf-8"?>
<!-- Generator: Fusion 360, Shaper Origin Export Add-In, Version 1.7.0  -->
<svg xmlns="http://www.w3.org/2000/svg" xmlns:xlink="http://www.w3.org/1999/xlink" xmlns:shaper="http://www.shapertools.com/namespaces/shaper" shaper:fusionaddin="version:1.7.0" width="42cm" height="9.75cm" version="1.1" x="0cm" y="0cm" viewBox="0 0 42 9.75" enable-background="new 0 0 42 9.75" xml:space="preserve"><path d="M-20,4.875 L-20,1.7916667 -21,1.7916667 -21,-4.875 21,-4.875 21,1.7916667 20,1.7916667 20,4.875 -20,4.875z" transform="matrix(1,0,0,-1,21,4.875)" fill="rgb(0,0,0)" stroke-linecap="round" stroke-linejoin="round" /><path d="M-15,-4.375 L-18,-4.375 -18,-3.875 -15,-3.875 -15,-4.375z" transform="matrix(1,0,0,-1,21,4.875)" fill="rgb(255,255,255)" stroke="rgb(0,0,0)" stroke-width="0.0010cm" stroke-linecap="round" stroke-linejoin="round" /><path d="M-9,-4.375 L-12,-4.375 -12,-3.875 -9,-3.875 -9,-4.375z" transform="matrix(1,0,0,-1,21,4.875)" fill="rgb(255,255,255)" stroke="rgb(0,0,0)" stroke-width="0.0010cm" stroke-linecap="round" stroke-linejoin="round" /><path d="M18,-4.375 L15,-4.375 15,-3.875 18,-3.875 18,-4.375z" transform="matrix(1,0,0,-1,21,4.875)" fill="rgb(255,255,255)" stroke="rgb(0,0,0)" stroke-width="0.0010cm" stroke-linecap="round" stroke-linejoin="round" /><path d="M12,-4.375 L9,-4.375 9,-3.875 12,-3.875 12,-4.375z" transform="matrix(1,0,0,-1,21,4.875)" fill="rgb(255,255,255)" stroke="rgb(0,0,0)" stroke-width="0.0010cm" stroke-linecap="round" stroke-linejoin="round" /></svg>
